X:1
T:When Morning Gilds the Skies
T:When Morning Gilds the Skies
T:Joseph Barnby, 1868
T:Edward Caswall, 1854, & Robert Bridges,  1899
T:Public Domain Courtesy of the Cyber Hymnal™
C:Joseph Barnby, 1868
Z:Public Domain
Z:Courtesy of the Cyber Hymnal™
%%score ( 1 2 ) ( 3 4 )
L:1/8
Q:1/4=115
M:4/4
K:C
V:1 treble 
V:2 treble 
V:3 bass 
V:4 bass 
V:1
 [CE]2 | [CF]2 [CG]2 [CA]2 [Fc]2 | (B4 A2) [FG]2 | [EA]2 [GB]2 [Gc]2 [Ge]2 | d6 [Dc]2 | %5
w: 1.~When|morn- ing gilds the|skies * my|heart a- wak- ing|cries: May|
w: 2.~Does|sad- ness fill my|mind? * A|sol- ace here I|find, May|
w: 3.~In|Heav’n’s e- ter- nal|bliss * the|love- liest strain is|this, May|
w: 4.~Be|this, while life is|mine, * my|can- ti- cle di-|vine: May|
 [DB]2 [Ec]2 [CA]3 [B,G] | [B,G]6 [DG]2 | [CG]2 [Cc]2 [FB]2 [Fc]2 | G6 [DG]2 | %9
w: Je- sus Christ be|praised! A-|like at work and|prayer, to|
w: J- esus Christ be|praised! Or|fades my earth- ly|bliss? My|
w: Je- sus Christ be|praised! Let|earth, and sea and|sky from|
w: Je- sus Christ be|praised! Sing|this e- ter- nal|song through|
 [CG]2 [Ec]2 [^FB]2 [Fc]2 | G6 [FG]2 | G4 [Gc]4 | [Fc]4 [Fd]4 x2 | [Ec]6 |] %14
w: Je- sus I re-|pair: May|Je- sus|Christ be|praised!|
w: com- fort still is|this, May|Je- sus|Christ be|praised!|
w: depth to height re-|ply, May|Je- sus|Christ be|praised!|
w: all the ag- es|long: May|Jes- us|Christ be|praised!|
V:2
 x2 | x8 | F6 x2 | x8 | (^F4 G2) x2 | x8 | x8 | x8 | (F4 E2) x2 | x8 | (G2 D2 E2) x2 | (E2 F2) x4 | %12
 x10 | x6 |] %14
V:3
 [C,G,]2 | [D,G,]2 [E,G,]2 F,2 [D,A,]2 | ([G,B,]4 [A,C]2) [B,D]2 | C2 [B,D]2 [A,C]2 [A,C]2 | %4
 ([D,C]4 [E,B,]2) [^F,A,]2 | G,2 [C,G,]2 [D,G,]2 [D,^F,]2 | [G,,G,]6 [F,B,]2 | %7
 [E,C]2 [E,G,]2 [D,B,]2 [C,A,]2 | ([B,,D]2 [A,,C]2 [G,,B,]2) [F,B,]2 | %9
 [E,C]2 [C,G,]2 [D,D]2 [D,C]2 | B,6 [D,B,]2 | (C2 D2) [_B,E]4 | C6 z2 B,2 | [C,C]6 |] %14
V:4
 x2 | x4 F,2 x2 | x8 | C2 x6 | x8 | G,2 x6 | x8 | x8 | x8 | x8 | (G,2 F,2 E,2) x2 | C,4 x4 | %12
 A,4 G,4 x2 | x6 |] %14

